Origami/32x32/apps/glabels-3.0.svg

<svg width="32" height="32" version="1" xmlns="http://www.w3.org/2000/svg">
 <rect transform="scale(-1,1)" x="-27" y="3" width="22" height="28" rx="1.375" ry="1.4" style="opacity:.2"/>
 <rect transform="scale(-1,1)" x="-27" y="2" width="22" height="28" rx="1.375" ry="1.4" style="fill:#e48a26"/>
 <path d="m8.5 5c-0.831 0-1.5 0.669-1.5 1.5v3c0 0.831 0.669 1.5 1.5 1.5h5c0.831 0 1.5-0.669 1.5-1.5v-3c0-0.831-0.669-1.5-1.5-1.5h-5zm10 0c-0.831 0-1.5 0.669-1.5 1.5v3c0 0.831 0.669 1.5 1.5 1.5h5c0.831 0 1.5-0.669 1.5-1.5v-3c0-0.831-0.669-1.5-1.5-1.5h-5zm-10 8c-0.831 0-1.5 0.669-1.5 1.5v3c0 0.831 0.669 1.5 1.5 1.5h5c0.831 0 1.5-0.669 1.5-1.5v-3c0-0.831-0.669-1.5-1.5-1.5h-5zm10 0c-0.831 0-1.5 0.669-1.5 1.5v3c0 0.831 0.669 1.5 1.5 1.5h5c0.831 0 1.5-0.669 1.5-1.5v-3c0-0.831-0.669-1.5-1.5-1.5h-5zm-10 8c-0.831 0-1.5 0.669-1.5 1.5v3c0 0.831 0.669 1.5 1.5 1.5h5c0.831 0 1.5-0.669 1.5-1.5v-3c0-0.831-0.669-1.5-1.5-1.5h-5zm10 0c-0.831 0-1.5 0.669-1.5 1.5v3c0 0.831 0.669 1.5 1.5 1.5h5c0.831 0 1.5-0.669 1.5-1.5v-3c0-0.831-0.669-1.5-1.5-1.5h-5z" style="opacity:.2"/>
 <rect x="7" y="4" width="8" height="6" ry="1.5" style="fill:#ffebb7"/>
 <rect x="17" y="4" width="8" height="6" ry="1.5" style="fill:#ffebb7"/>
 <rect x="7" y="12" width="8" height="6" ry="1.5" style="fill:#ffd774"/>
 <rect x="17" y="12" width="8" height="6" ry="1.5" style="fill:#ffd774"/>
 <rect x="7" y="20" width="8" height="6" ry="1.5" style="fill:#ffb84a"/>
 <rect x="17" y="20" width="8" height="6" ry="1.5" style="fill:#ffb84a"/>
 <path d="m9 5v1h4v-1h-4zm-1 2v1h4v-1h-4z" style="opacity:.2"/>
 <path d="m19 5v1h4v-1h-4zm-1 2v1h4v-1h-4z" style="opacity:.2"/>
 <path d="m9 13v1h4v-1h-4zm-1 2v1h4v-1h-4z" style="opacity:.2"/>
 <path d="m19 13v1h4v-1h-4zm-1 2v1h4v-1h-4z" style="opacity:.2"/>
 <path d="m9 21v1h4v-1h-4zm-1 2v1h4v-1h-4z" style="opacity:.2"/>
 <path d="m19 21v1h4v-1h-4zm-1 2v1h4v-1h-4z" style="opacity:.2"/>
 <path d="m6.375 2c-0.76175 0-1.375 0.6247906-1.375 1.4003906v1c0-0.7756 0.61325-1.4003906 1.375-1.4003906h19.25c0.76175 0 1.375 0.6247906 1.375 1.4003906v-1c0-0.7756-0.61325-1.4003906-1.375-1.4003906h-19.25z" style="fill:#ffffff;opacity:.1"/>
</svg>

<svg xmlns="http://www.w3.org/2000/svg" width="32" height="32" version="1">
 <rect style="opacity:0.2" width="22" height="28" x="-27" y="3" rx="1.375" ry="1.4" transform="scale(-1,1)"/>
 <rect style="fill:#e48a26" width="22" height="28" x="-27" y="2" rx="1.375" ry="1.4" transform="scale(-1,1)"/>
 <path style="opacity:0.2" d="M 8.5,5 C 7.669,5 7,5.669 7,6.5 l 0,3 C 7,10.331 7.669,11 8.5,11 l 5,0 C 14.331,11 15,10.331 15,9.5 l 0,-3 C 15,5.669 14.331,5 13.5,5 l -5,0 z m 10,0 C 17.669,5 17,5.669 17,6.5 l 0,3 c 0,0.831 0.669,1.5 1.5,1.5 l 5,0 C 24.331,11 25,10.331 25,9.5 l 0,-3 C 25,5.669 24.331,5 23.5,5 l -5,0 z m -10,8 C 7.669,13 7,13.669 7,14.5 l 0,3 C 7,18.331 7.669,19 8.5,19 l 5,0 c 0.831,0 1.5,-0.669 1.5,-1.5 l 0,-3 C 15,13.669 14.331,13 13.5,13 l -5,0 z m 10,0 C 17.669,13 17,13.669 17,14.5 l 0,3 c 0,0.831 0.669,1.5 1.5,1.5 l 5,0 c 0.831,0 1.5,-0.669 1.5,-1.5 l 0,-3 C 25,13.669 24.331,13 23.5,13 l -5,0 z m -10,8 C 7.669,21 7,21.669 7,22.5 l 0,3 C 7,26.331 7.669,27 8.5,27 l 5,0 c 0.831,0 1.5,-0.669 1.5,-1.5 l 0,-3 C 15,21.669 14.331,21 13.5,21 l -5,0 z m 10,0 C 17.669,21 17,21.669 17,22.5 l 0,3 c 0,0.831 0.669,1.5 1.5,1.5 l 5,0 c 0.831,0 1.5,-0.669 1.5,-1.5 l 0,-3 C 25,21.669 24.331,21 23.5,21 l -5,0 z"/>
 <rect style="fill:#ffebb7" width="8" height="6" x="7" y="4" ry="1.5"/>
 <rect style="fill:#ffebb7" width="8" height="6" x="17" y="4" ry="1.5"/>
 <rect style="fill:#ffd774" width="8" height="6" x="7" y="12" ry="1.5"/>
 <rect style="fill:#ffd774" width="8" height="6" x="17" y="12" ry="1.5"/>
 <rect style="fill:#ffb84a" width="8" height="6" x="7" y="20" ry="1.5"/>
 <rect style="fill:#ffb84a" width="8" height="6" x="17" y="20" ry="1.5"/>
 <path style="opacity:0.2" d="M 9 5 L 9 6 L 13 6 L 13 5 L 9 5 z M 8 7 L 8 8 L 12 8 L 12 7 L 8 7 z"/>
 <path style="opacity:0.2" d="m 19,5 0,1 4,0 0,-1 -4,0 z m -1,2 0,1 4,0 0,-1 -4,0 z"/>
 <path style="opacity:0.2" d="m 9,13 0,1 4,0 0,-1 -4,0 z m -1,2 0,1 4,0 0,-1 -4,0 z"/>
 <path style="opacity:0.2" d="m 19,13 0,1 4,0 0,-1 -4,0 z m -1,2 0,1 4,0 0,-1 -4,0 z"/>
 <path style="opacity:0.2" d="m 9,21 0,1 4,0 0,-1 -4,0 z m -1,2 0,1 4,0 0,-1 -4,0 z"/>
 <path style="opacity:0.2" d="m 19,21 0,1 4,0 0,-1 -4,0 z m -1,2 0,1 4,0 0,-1 -4,0 z"/>
 <path style="fill:#ffffff;opacity:0.1" d="M 6.375 2 C 5.61325 2 5 2.6247906 5 3.4003906 L 5 4.4003906 C 5 3.6247906 5.61325 3 6.375 3 L 25.625 3 C 26.38675 3 27 3.6247906 27 4.4003906 L 27 3.4003906 C 27 2.6247906 26.38675 2 25.625 2 L 6.375 2 z"/>
</svg>
